X:1
T: Hey Ding a Ding
N:
C:
S:
A:
O:
R:
M:6/8
K:D
I:speed 150
%W: A1
% voice 1 (1 lines, 36 notes)
K:D
M:6/8
L:1/16
A2 |d4 f2 e4 g2 f2 a2 f2 d4 A2 d4 f2 e2 a2 g2 f6 e6 |b4 g2 e2 b2 g2 a4 f2 d2 a2 f2 e2 g2 f2 e2 d2 c2 d6d4 A2 |
%W: A2
% voice 1 (1 lines, 35 notes)
d4 f2 e4 g2 f2 a2 f2 d4 A2 d4 f2 e2 a2 g2 f6 e6 |b4 g2 e2 b2 g2 a4 f2 d2 a2 f2 e2 g2 f2 e2 d2 c2 d6d4 z2 |
%W: B1
% voice 1 (1 lines, 37 notes)
F4 A2 d4 c2 B2 d2 B2 A6 e2 f2 g2 a2 f2 d2 c6 e6 |a2 f2 d2 b2 g2 e2 a2 f2 d2 e2 c2 A2 B2 c2 d2 e2 d2 c2 d6d4 z2 |
%W: B2
% voice 1 (1 lines, 36 notes)
F4 A2 d4 c2 B2 d2 B2 A6 e2 f2 g2 a2 f2 d2 c6 e6 |a2 f2 d2 b2 g2 e2 a2 f2 d2 e2 c2 A2 B2 c2 d2 e2 d2 c2 d6d4 ||
